svgs/solid/signal-bars-fair.svg

<svg xmlns="http://www.w3.org/2000/svg" viewBox="0 0 576 512"><!--! Font Awesome Pro 6.3.0 by @fontawesome - https://fontawesome.com License - https://fontawesome.com/license (Commercial License) Copyright 2023 Fonticons, Inc. --><path d="M208 256c-26.5 0-48 21.5-48 48V464c0 26.5 21.5 48 48 48s48-21.5 48-48V304c0-26.5-21.5-48-48-48zM48 384c-26.5 0-48 21.5-48 48v32c0 26.5 21.5 48 48 48s48-21.5 48-48V432c0-26.5-21.5-48-48-48z"/></svg>

<svg xmlns="http://www.w3.org/2000/svg" viewBox="0 0 576 512"><!-- Font Awesome Pro 6.0.0-alpha2 by @fontawesome - https://fontawesome.com License - https://fontawesome.com/license (Commercial License) --><path d="M208 256H208C181.6 256 160 277.6 160 304V464C160 490.4 181.6 512 208 512H208C234.4 512 256 490.4 256 464V304C256 277.6 234.4 256 208 256ZM48 384H48C21.6 384 0 405.6 0 432V464C0 490.4 21.6 512 48 512H48C74.4 512 96 490.4 96 464V432C96 405.6 74.4 384 48 384Z"/></svg>
